front/assets/images/illustration-filtre-besoins-reagir.svg

<svg width="48" height="48" viewBox="0 0 48 48" fill="none" xmlns="http://www.w3.org/2000/svg">
<g clip-path="url(#clip0_81_146181)">
<path d="M35.148 37.2893C35.166 37.1033 35.286 36.9473 35.454 36.8873L35.898 36.7613C36.216 36.6413 36.42 36.3173 36.39 35.9693L36.042 34.6373L36.018 34.5713C35.898 34.2533 35.58 34.0553 35.226 34.0793L34.722 34.1993C34.554 34.2293 34.368 34.1513 34.266 34.0073L34.068 33.7433C33.966 33.5933 33.948 33.4133 34.02 33.2693L34.242 32.8733C34.386 32.5553 34.296 32.1773 34.02 31.9493L32.844 31.2593L32.784 31.2293C32.466 31.0853 32.088 31.1693 31.86 31.4513L31.602 31.8773C31.506 32.0153 31.35 32.0873 31.188 32.0753L31.044 32.0513C30.978 32.0453 30.912 32.0333 30.846 32.0273C30.696 32.0093 30.546 32.0573 30.426 32.1533C30.306 32.2493 30.234 32.3873 30.222 32.5373C30.21 32.6873 30.252 32.8373 30.348 32.9573C30.444 33.0773 30.582 33.1493 30.732 33.1613C30.804 33.1673 30.882 33.1793 30.966 33.1913L31.14 33.2093C31.734 33.2393 32.292 32.9393 32.598 32.4353L33.03 32.6873L32.964 32.8253C32.718 33.3953 32.814 34.0373 33.21 34.4993L33.396 34.7513C33.786 35.2373 34.428 35.4533 35.034 35.2973L35.166 35.7773L35.004 35.8313C34.44 36.0593 34.056 36.5753 34.008 37.1753L33.96 37.5833C33.93 38.1773 34.23 38.7353 34.734 39.0413L34.482 39.4733L34.35 39.4073C33.786 39.1613 33.144 39.2513 32.676 39.6413L32.424 39.8333C31.932 40.2233 31.722 40.8653 31.872 41.4773L31.392 41.6093L31.338 41.4473C31.11 40.8833 30.594 40.5053 29.994 40.4513L29.592 40.4033C28.998 40.3793 28.44 40.6733 28.134 41.1773L27.702 40.9253L27.774 40.7813C28.014 40.2173 27.918 39.5753 27.534 39.1193L27.354 38.8853C27.156 38.6753 26.832 38.6393 26.598 38.8133C26.472 38.9033 26.394 39.0353 26.37 39.1853C26.346 39.3353 26.382 39.4853 26.472 39.6113L26.67 39.8753C26.772 40.0253 26.79 40.1993 26.718 40.3493L26.496 40.7453C26.352 41.0633 26.442 41.4413 26.718 41.6693L27.894 42.3593L27.954 42.3893C28.272 42.5333 28.65 42.4433 28.878 42.1673L29.136 41.7413C29.232 41.6033 29.394 41.5313 29.55 41.5493L29.694 41.5733C29.76 41.5853 29.826 41.5913 29.892 41.5973C30.078 41.6153 30.234 41.7353 30.294 41.9033L30.396 42.2813L30.42 42.3473C30.534 42.6473 30.822 42.8453 31.146 42.8453C31.164 42.8453 31.188 42.8453 31.206 42.8453L32.538 42.4973L32.604 42.4733C32.922 42.3533 33.126 42.0293 33.096 41.6813L32.988 41.2313L32.976 41.1773C32.946 41.0033 33.018 40.8233 33.162 40.7213C33.222 40.6793 33.276 40.6373 33.33 40.5953L33.438 40.5113C33.582 40.4153 33.762 40.3973 33.906 40.4693L34.302 40.6913C34.62 40.8353 34.998 40.7453 35.22 40.4693L35.91 39.2933L35.94 39.2333C36.084 38.9153 35.994 38.5373 35.718 38.3093L35.292 38.0513C35.154 37.9553 35.082 37.7933 35.1 37.6373L35.124 37.4933C35.136 37.4273 35.142 37.3613 35.148 37.2953V37.2893Z" fill="#0D0C21"/>
<path d="M26.736 36.4379V36.3659C26.748 36.3179 26.76 36.2639 26.766 36.2099L26.784 36.0359C26.814 35.4419 26.514 34.8839 26.01 34.5779L26.262 34.1459L26.406 34.2179C26.97 34.4579 27.612 34.3619 28.068 33.9779L28.326 33.7859C28.812 33.3959 29.028 32.7539 28.872 32.1479L29.688 31.9259C29.688 31.9259 29.7 31.9259 29.706 31.9259L29.766 31.9139C30.042 31.8299 30.21 31.5539 30.162 31.2719C30.108 30.9599 29.814 30.7559 29.502 30.8039C29.502 30.8039 29.46 30.8099 29.454 30.8159L28.212 31.1459L28.146 31.1699C27.828 31.2899 27.624 31.6139 27.654 31.9619L27.762 32.4119L27.774 32.4659C27.804 32.6399 27.732 32.8199 27.588 32.9219L27.318 33.1259C27.168 33.2279 26.994 33.2459 26.844 33.1739L26.448 32.9519C26.13 32.8079 25.752 32.8979 25.524 33.1739L24.834 34.3499L24.804 34.4099C24.66 34.7279 24.75 35.1059 25.026 35.3339L25.452 35.5919C25.59 35.6879 25.662 35.8499 25.644 36.0059L25.62 36.1499C25.608 36.2159 25.602 36.2819 25.596 36.3479C25.578 36.5339 25.458 36.6899 25.29 36.7499L24.846 36.8759C24.528 36.9959 24.324 37.3199 24.354 37.6679L24.702 38.9999L24.72 39.0599C24.81 39.2759 25.02 39.4139 25.248 39.4139C25.302 39.4139 25.35 39.4079 25.404 39.3899L25.464 39.3719C25.728 39.2639 25.872 38.9699 25.8 38.6939L25.572 37.8539L25.734 37.7999C26.298 37.5719 26.682 37.0499 26.73 36.4559L26.736 36.4379Z" fill="#0D0C21"/>
<path d="M33.4502 13.0379C33.4502 10.9019 32.7182 8.80789 31.3862 7.14589C31.1762 6.88789 30.8042 6.84589 30.5402 7.04989C30.2822 7.25389 30.2402 7.63189 30.4442 7.89589C31.6202 9.37189 32.2442 11.1479 32.2442 13.0379C32.2442 16.1399 30.4562 19.0199 27.6842 20.4059L27.6542 20.3759C27.5642 20.4179 27.4982 20.4839 27.4442 20.5619C27.2522 20.7359 27.1802 21.0179 27.3002 21.2579C27.3122 21.2819 27.3302 21.3059 27.3482 21.3299V23.4119H24.5882C24.5882 23.4119 24.6002 23.3699 24.6002 23.3519V17.7059H24.9902C26.6162 17.7059 27.9422 16.3799 27.9422 14.7539C27.9422 13.1279 26.6162 11.8019 24.9902 11.8019H22.9922C21.3662 11.8019 20.0402 13.1279 20.0402 14.7539C20.0402 16.3799 21.3662 17.7059 22.9922 17.7059H23.4002V23.3519C23.4002 23.3519 23.4122 23.3939 23.4122 23.4119H20.6342V20.8619C20.6342 20.6339 20.4902 20.4359 20.2922 20.3519L20.2682 20.3759C17.4842 18.9599 15.7562 16.1459 15.7562 13.0259C15.7562 8.48389 19.4522 4.78789 23.9942 4.78789C25.3802 4.78789 26.7542 5.14189 27.9602 5.80189C28.2482 5.96389 28.6142 5.85589 28.7762 5.56789C28.9382 5.27989 28.8302 4.91389 28.5422 4.75189C27.1562 3.98989 25.5842 3.58789 23.9942 3.58789C18.7862 3.58789 14.5562 7.82389 14.5562 13.0259C14.5562 16.5239 16.4582 19.6859 19.5242 21.3359V24.4379C19.5242 25.1339 19.7822 25.6799 20.2502 26.1779C20.3942 26.3219 20.5622 26.4539 20.7422 26.5619C20.7602 27.2399 21.0482 27.8579 21.4982 28.3139C21.9662 28.7819 22.6082 29.0699 23.3162 29.0699H24.6482C25.3562 29.0699 25.9982 28.7819 26.4722 28.3139C26.9222 27.8639 27.2102 27.2459 27.2282 26.5619C27.4082 26.4539 27.5762 26.3279 27.7202 26.1779C28.1642 25.7339 28.4402 25.1159 28.4402 24.4379V21.3479C31.4822 19.7159 33.4322 16.4939 33.4322 13.0259L33.4502 13.0379ZM21.2462 14.7599C21.2462 13.7939 22.0322 13.0079 22.9982 13.0079H24.9962C25.9622 13.0079 26.7482 13.7939 26.7482 14.7599C26.7482 15.7259 25.9622 16.5119 24.9962 16.5119H22.9982C22.0322 16.5119 21.2462 15.7259 21.2462 14.7599ZM25.7102 27.5459C25.4402 27.8099 25.0742 27.9779 24.6662 27.9779H23.3342C22.9262 27.9779 22.5602 27.8099 22.2902 27.5459C22.2182 27.4739 21.7622 26.9099 22.0022 26.9159H26.0822C26.0102 27.1559 25.8782 27.3779 25.7102 27.5459ZM26.9582 25.4099C26.7122 25.6559 26.3702 25.8059 25.9982 25.8059H22.0082C21.6362 25.8059 21.2942 25.6499 21.0482 25.4039L21.0242 25.3799C20.8082 25.1519 20.6702 24.8519 20.6522 24.5219H27.3542C27.3362 24.8699 27.1862 25.1819 26.9582 25.4099Z" fill="#0D0C21"/>
<path d="M32.712 29.916C32.592 29.916 32.478 29.88 32.37 29.808C32.1 29.622 32.028 29.244 32.22 28.974C34.008 26.388 34.464 23.064 33.444 20.076C33.336 19.764 33.504 19.422 33.816 19.314C34.128 19.206 34.47 19.374 34.578 19.686C35.718 23.028 35.208 26.754 33.204 29.652C33.09 29.82 32.898 29.91 32.712 29.91V29.916Z" fill="#FED980"/>
<path d="M22.5181 39.8214C22.5181 39.8214 22.4821 39.8214 22.4641 39.8214C13.8901 39.0294 7.42212 31.9374 7.42212 23.3154C7.42212 19.3854 8.78412 15.6594 11.2801 12.6834H9.94212C9.61212 12.6834 9.34212 12.4134 9.34212 12.0834C9.34212 11.7534 9.61212 11.4834 9.94212 11.4834H12.6421C12.8821 11.4834 13.1041 11.6274 13.1941 11.8494C13.2901 12.0714 13.2361 12.3294 13.0681 12.5034C10.2001 15.4014 8.62212 19.2414 8.62212 23.3154C8.62212 31.3134 14.6221 37.8954 22.5721 38.6274C22.9021 38.6574 23.1481 38.9514 23.1121 39.2814C23.0821 39.5934 22.8241 39.8274 22.5121 39.8274L22.5181 39.8214Z" fill="#FED980"/>
<path d="M12.696 15.7855C12.372 15.7855 12.102 15.5215 12.096 15.1975L12.042 12.0895C12.042 11.7595 12.3 11.4835 12.63 11.4775H12.642C12.966 11.4775 13.236 11.7415 13.242 12.0655L13.296 15.1735C13.296 15.5035 13.038 15.7795 12.708 15.7855H12.696Z" fill="#FED980"/>
<path d="M22.53 34.3918C22.53 34.3918 22.476 34.3918 22.446 34.3918C20.022 34.0558 17.826 32.9578 16.092 31.2238C13.026 28.1578 12.006 23.5438 13.5 19.4698C13.614 19.1578 13.956 18.9958 14.268 19.1098C14.58 19.2238 14.742 19.5658 14.628 19.8778C13.296 23.5138 14.208 27.6358 16.944 30.3718C18.492 31.9198 20.454 32.8978 22.614 33.1978C22.944 33.2458 23.172 33.5458 23.124 33.8758C23.082 34.1758 22.824 34.3918 22.53 34.3918Z" fill="#FED980"/>
<path d="M37.0501 33.1314C37.0501 33.1314 36.9961 33.1314 36.9661 33.1314C36.7441 33.1014 36.5581 32.9454 36.4861 32.7354L35.5921 30.1974C35.4841 29.8854 35.6461 29.5434 35.9581 29.4294C36.2701 29.3214 36.6121 29.4834 36.7261 29.7954L37.2181 31.1874C38.6401 28.8114 39.3841 26.1114 39.3841 23.3094C39.3841 19.2774 37.8361 15.4614 35.0161 12.5754C34.7821 12.3354 34.7881 11.9574 35.0281 11.7294C35.2621 11.4954 35.6461 11.5014 35.8741 11.7414C38.9101 14.8554 40.5781 18.9654 40.5781 23.3094C40.5781 26.7594 39.5281 30.0714 37.5361 32.8794C37.4221 33.0414 37.2361 33.1314 37.0441 33.1314H37.0501Z" fill="#FED980"/>
<path d="M37.0499 33.1321C36.7739 33.1321 36.5219 32.9401 36.4619 32.6581C36.3899 32.3341 36.5999 32.0161 36.9239 31.9441L39.5219 31.3921C39.8459 31.3201 40.1639 31.5301 40.2359 31.8541C40.3079 32.1781 40.0979 32.4961 39.7739 32.5681L37.1759 33.1201C37.1339 33.1321 37.0919 33.1321 37.0499 33.1321Z" fill="#FED980"/>
<path d="M30.6778 37.434C30.5098 37.512 30.3238 37.524 30.1498 37.464C29.8498 37.362 29.5258 37.518 29.4238 37.818C29.3758 37.962 29.3818 38.118 29.4478 38.256C29.5138 38.394 29.6338 38.496 29.7778 38.544C29.9758 38.61 30.1738 38.646 30.3778 38.646C30.6538 38.646 30.9238 38.586 31.1818 38.46C31.6198 38.244 31.9498 37.872 32.1118 37.41C32.4418 36.456 31.9318 35.412 30.9778 35.082C30.5158 34.926 30.0178 34.956 29.5798 35.166C29.1418 35.382 28.8118 35.754 28.6498 36.216C28.5478 36.516 28.7038 36.84 29.0038 36.942C29.1478 36.99 29.3038 36.984 29.4418 36.918C29.5798 36.852 29.6818 36.738 29.7298 36.594L29.7478 36.54C29.8918 36.21 30.2698 36.042 30.6058 36.162C30.7798 36.222 30.9178 36.348 31.0018 36.51C31.0858 36.678 31.0918 36.864 31.0318 37.038C30.9718 37.212 30.8458 37.35 30.6838 37.434H30.6778Z" fill="#FED980"/>
<path fill-rule="evenodd" clip-rule="evenodd" d="M41.4 5.44121C41.07 5.44121 40.8 5.17121 40.8 4.84121C40.8 4.51121 41.07 4.24121 41.4 4.24121C41.73 4.24121 42 4.51121 42 4.84121C42 5.17121 41.73 5.44121 41.4 5.44121Z" fill="#EAF5FF"/>
<path fill-rule="evenodd" clip-rule="evenodd" d="M36.6 43.8416C36.27 43.8416 36 43.5716 36 43.2416C36 42.9116 36.27 42.6416 36.6 42.6416C36.93 42.6416 37.2 42.9116 37.2 43.2416C37.2 43.5716 36.93 43.8416 36.6 43.8416Z" fill="#EAF5FF"/>
<path fill-rule="evenodd" clip-rule="evenodd" d="M41.4 5.44121C41.07 5.44121 40.8 5.17121 40.8 4.84121C40.8 4.51121 41.07 4.24121 41.4 4.24121C41.73 4.24121 42 4.51121 42 4.84121C42 5.17121 41.73 5.44121 41.4 5.44121Z" fill="#EAF5FF"/>
<path fill-rule="evenodd" clip-rule="evenodd" d="M6.6 7.8416C6.27 7.8416 6 7.5716 6 7.2416C6 6.9116 6.27 6.6416 6.6 6.6416C6.93 6.6416 7.2 6.9116 7.2 7.2416C7.2 7.5716 6.93 7.8416 6.6 7.8416Z" fill="#EAF5FF"/>
</g>
<defs>
<clipPath id="clip0_81_146181">
<rect width="36" height="40.242" fill="white" transform="translate(6 3.59961)"/>
</clipPath>
</defs>
</svg>

<svg xmlns="http://www.w3.org/2000/svg" width="48" height="48" fill="none"><g clip-path="url(#a)"><path fill="#0D0C21" d="M35.148 37.29a.47.47 0 0 1 .306-.403l.444-.126a.775.775 0 0 0 .492-.792l-.348-1.332-.024-.066a.78.78 0 0 0-.792-.492l-.504.12a.47.47 0 0 1-.456-.192l-.198-.264a.47.47 0 0 1-.048-.474l.222-.396a.78.78 0 0 0-.222-.924l-1.176-.69-.06-.03a.77.77 0 0 0-.924.222l-.258.426a.46.46 0 0 1-.414.198l-.144-.024c-.066-.006-.132-.018-.198-.024a.566.566 0 0 0-.624.51c-.012.15.03.3.126.42s.234.192.384.204q.108.01.234.03l.174.018a1.61 1.61 0 0 0 1.458-.774l.432.252-.066.138c-.246.57-.15 1.212.246 1.674l.186.252c.39.486 1.032.702 1.638.546l.132.48-.162.054a1.59 1.59 0 0 0-.996 1.344l-.048.408a1.61 1.61 0 0 0 .774 1.458l-.252.432-.132-.066a1.6 1.6 0 0 0-1.674.234l-.252.192a1.6 1.6 0 0 0-.552 1.644l-.48.132-.054-.162a1.6 1.6 0 0 0-1.344-.996l-.402-.048a1.62 1.62 0 0 0-1.458.774l-.432-.252.072-.144a1.6 1.6 0 0 0-.24-1.662l-.18-.234a.57.57 0 0 0-.984.3c-.024.15.012.3.102.426l.198.264a.47.47 0 0 1 .048.474l-.222.396a.78.78 0 0 0 .222.924l1.176.69.06.03a.78.78 0 0 0 .924-.222l.258-.426a.45.45 0 0 1 .414-.192l.144.024q.099.017.198.024a.47.47 0 0 1 .402.306l.102.378.024.066c.114.3.402.498.726.498h.06l1.332-.348.066-.024a.775.775 0 0 0 .492-.792l-.108-.45-.012-.054a.47.47 0 0 1 .186-.456q.088-.063.168-.126l.108-.084a.47.47 0 0 1 .468-.042l.396.222a.77.77 0 0 0 .918-.222l.69-1.176.03-.06a.78.78 0 0 0-.222-.924l-.426-.258a.45.45 0 0 1-.192-.414l.024-.144q.017-.099.024-.198zm-8.412-.852v-.072q.02-.074.03-.156l.018-.174a1.61 1.61 0 0 0-.774-1.458l.252-.432.144.072c.564.24 1.206.144 1.662-.24l.258-.192c.486-.39.702-1.032.546-1.638l.816-.222h.018l.06-.012a.57.57 0 0 0-.264-1.11s-.042.006-.048.012l-1.242.33-.066.024a.775.775 0 0 0-.492.792l.108.45.012.054a.47.47 0 0 1-.186.456l-.27.204a.47.47 0 0 1-.474.048l-.396-.222a.78.78 0 0 0-.924.222l-.69 1.176-.03.06a.78.78 0 0 0 .222.924l.426.258c.138.096.21.258.192.414l-.024.144a2 2 0 0 0-.024.198.47.47 0 0 1-.306.402l-.444.126a.775.775 0 0 0-.492.792L24.702 39l.018.06c.09.216.3.354.528.354a.5.5 0 0 0 .156-.024l.06-.018a.58.58 0 0 0 .336-.678l-.228-.84.162-.054c.564-.228.948-.75.996-1.344zm6.714-23.4c0-2.136-.732-4.23-2.064-5.892a.607.607 0 0 0-.846-.096.606.606 0 0 0-.096.846 8.17 8.17 0 0 1 1.8 5.142 8.29 8.29 0 0 1-4.56 7.368l-.03-.03a.53.53 0 0 0-.21.186.59.59 0 0 0-.144.696q.02.036.048.072v2.082h-2.76s.012-.042.012-.06v-5.646h.39a2.96 2.96 0 0 0 2.952-2.952 2.96 2.96 0 0 0-2.952-2.952h-1.998a2.96 2.96 0 0 0-2.952 2.952 2.96 2.96 0 0 0 2.952 2.952h.408v5.646s.012.042.012.06h-2.778v-2.55a.56.56 0 0 0-.342-.51l-.024.024a8.21 8.21 0 0 1-4.512-7.35c0-4.542 3.696-8.238 8.238-8.238 1.386 0 2.76.354 3.966 1.014a.6.6 0 0 0 .816-.234.6.6 0 0 0-.234-.816 9.46 9.46 0 0 0-4.548-1.164c-5.208 0-9.438 4.236-9.438 9.438a9.4 9.4 0 0 0 4.968 8.31v3.102c0 .696.258 1.242.726 1.74.144.144.312.276.492.384.018.678.306 1.296.756 1.752.468.468 1.11.756 1.818.756h1.332a2.587 2.587 0 0 0 2.58-2.508 2.4 2.4 0 0 0 .492-.384c.444-.444.72-1.062.72-1.74v-3.09c3.042-1.632 4.992-4.854 4.992-8.322zM21.246 14.76c0-.966.786-1.752 1.752-1.752h1.998c.966 0 1.752.786 1.752 1.752s-.786 1.752-1.752 1.752h-1.998a1.754 1.754 0 0 1-1.752-1.752m4.464 12.786a1.5 1.5 0 0 1-1.044.432h-1.332a1.5 1.5 0 0 1-1.044-.432c-.072-.072-.528-.636-.288-.63h4.08c-.072.24-.204.462-.372.63m1.248-2.136a1.36 1.36 0 0 1-.96.396h-3.99c-.372 0-.714-.156-.96-.402l-.024-.024a1.35 1.35 0 0 1-.372-.858h6.702c-.018.348-.168.66-.396.888"/><path fill="#FED980" d="M32.712 29.916a.598.598 0 0 1-.492-.942 10.01 10.01 0 0 0 1.224-8.898.6.6 0 0 1 .372-.762.6.6 0 0 1 .762.372 11.22 11.22 0 0 1-1.374 9.966.6.6 0 0 1-.492.258zm-10.194 9.905h-.054C13.89 39.03 7.422 31.937 7.422 23.315c0-3.93 1.362-7.656 3.858-10.632H9.942c-.33 0-.6-.27-.6-.6s.27-.6.6-.6h2.7c.24 0 .462.144.552.366a.6.6 0 0 1-.126.654 15.28 15.28 0 0 0-4.446 10.812c0 7.998 6 14.58 13.95 15.312.33.03.576.324.54.654a.6.6 0 0 1-.6.546z"/><path fill="#FED980" d="M12.696 15.786a.603.603 0 0 1-.6-.588l-.054-3.109c0-.33.258-.606.588-.612h.012c.324 0 .594.264.6.588l.054 3.109c0 .33-.258.606-.588.612zm9.834 18.606h-.084a11.07 11.07 0 0 1-6.354-3.168A11.22 11.22 0 0 1 13.5 19.47a.599.599 0 1 1 1.128.408 10.02 10.02 0 0 0 2.316 10.494 9.9 9.9 0 0 0 5.67 2.826.6.6 0 0 1-.084 1.194m14.52-1.261h-.084a.6.6 0 0 1-.48-.396l-.894-2.538a.607.607 0 0 1 .366-.768.607.607 0 0 1 .768.366l.492 1.392a15.27 15.27 0 0 0 2.166-7.878c0-4.032-1.548-7.848-4.368-10.734a.59.59 0 0 1 .012-.846.59.59 0 0 1 .846.012 16.48 16.48 0 0 1 4.704 11.568c0 3.45-1.05 6.762-3.042 9.57a.6.6 0 0 1-.492.252z"/><path fill="#FED980" d="M37.05 33.132a.602.602 0 0 1-.126-1.188l2.598-.552a.602.602 0 0 1 .252 1.176l-2.598.552c-.042.012-.084.012-.126.012m-6.372 4.302a.7.7 0 0 1-.528.03.57.57 0 0 0-.726.354.58.58 0 0 0 .024.438.56.56 0 0 0 .33.288q.296.1.6.102.416.002.804-.186a1.833 1.833 0 0 0-.204-3.378 1.85 1.85 0 0 0-1.398.084 1.84 1.84 0 0 0-.93 1.05.57.57 0 0 0 .354.726c.144.048.3.042.438-.024a.55.55 0 0 0 .288-.324l.018-.054a.69.69 0 0 1 1.254-.03c.084.168.09.354.03.528a.7.7 0 0 1-.348.396z"/><path fill="#EAF5FF" fill-rule="evenodd" d="M41.4 5.441c-.33 0-.6-.27-.6-.6s.27-.6.6-.6.6.27.6.6-.27.6-.6.6m-4.8 38.401c-.33 0-.6-.27-.6-.6s.27-.6.6-.6.6.27.6.6-.27.6-.6.6" clip-rule="evenodd"/><path fill="#EAF5FF" fill-rule="evenodd" d="M41.4 5.441c-.33 0-.6-.27-.6-.6s.27-.6.6-.6.6.27.6.6-.27.6-.6.6M6.6 7.842c-.33 0-.6-.27-.6-.6s.27-.6.6-.6.6.27.6.6-.27.6-.6.6" clip-rule="evenodd"/></g><defs><clipPath id="a"><path fill="#fff" d="M6 3.6h36v40.242H6z"/></clipPath></defs></svg>
